X:24
T:Crossing to Ireland
M:12/8
L:1/8
K:Fm
z/F/G/ |: AFF/E/ CF>G AF/G/A c>cB/A/ | GEE B,EE GEE B2 B/A/G/ |
AFF/E/ CF>G AF/G/A c2 B | A>Bc/=d/ edc BAG F3/2 :|
f/f/g/ [| aff cf>c AFF F3/2 c'ba | gee Be>B GEE E3/2b/a/g/ |
aff cf>c AFa g2 f | A>Bc/=d/ edc BAG F2 f/g/ |
aff cff FAc f/g/a/c'/b/a/ | gee Be>B EGB e/f/g/a/b/g/ |
a>gf g>f=e f>_ec B>AG | A>Bc/=d/ edc BAG F3 |]
% ----------------------------------------------------------------------------
